assets/svg/lightbulb.svg

<svg xmlns="http://www.w3.org/2000/svg" viewBox="0 0 24 24"><path d="M14 20c0 1.1-.9 2-2 2h-1c-1.1 0-2-.9-2-2h1c0 .55.45 1 1 1h1c.55 0 1-.45 1-1h1m1-3c0 1.1-.9 2-2 2h-3c-1.1 0-2-.9-2-2v-2c-1.8-1.18-3-3.2-3-5.5a6.5 6.5 0 1 1 13 0c0 2.3-1.2 4.32-3 5.5v2m-6 0c0 .55.45 1 1 1h3c.55 0 1-.45 1-1v-2.6c1.78-.9 3-2.76 3-4.9C17 6.46 14.54 4 11.5 4S6 6.46 6 9.5c0 2.14 1.22 4 3 4.9V17Z"/></svg>

<svg xmlns="http://www.w3.org/2000/svg" viewBox="0 0 24 24"><path d="M14,20C14,21.1 13.1,22 12,22H11C9.9,22 9,21.1 9,20H10C10,20.55 10.45,21 11,21H12C12.55,21 13,20.55 13,20H14M15,17C15,18.1 14.1,19 13,19H10C8.9,19 8,18.1 8,17V15C6.2,13.82 5,11.8 5,9.5C5,5.91 7.91,3 11.5,3C15.09,3 18,5.91 18,9.5C18,11.8 16.8,13.82 15,15V17M9,17C9,17.55 9.45,18 10,18H13C13.55,18 14,17.55 14,17V14.4C15.78,13.5 17,11.64 17,9.5C17,6.46 14.54,4 11.5,4C8.46,4 6,6.46 6,9.5C6,11.64 7.22,13.5 9,14.4V17Z" /></svg>
